X:22
T:Bold Doherty
R:jig
M:6/8
L:1/8
K:Emin
EFG ABc|B2E FGA|cBA BdB|AGE E2B|
EFG A2A|BEF GAB|cBA BdB|AGE E3:|
Bee edB|dBA GAe|Bee edB|dBA A3|
Bee edB|dBA GAe|cBA BdB|AGE E3|
Bee edB|dBA GAe|Bee edB|dBA A3|
G2g dee|dBA GAc|cBA BdB|AGE E3||

